icons/circle/48/kreversi.svg

<svg xmlns="http://www.w3.org/2000/svg" viewBox="0 0 48 48">
 <defs>
  <linearGradient id="linearGradient3764" x1="1" x2="47" gradientUnits="userSpaceOnUse" gradientTransform="matrix(0,-1,1,0,-1.5e-6,47.999998)">
   <stop style="stop-color:#e4e4e4;stop-opacity:1"/>
   <stop offset="1" style="stop-color:#eee;stop-opacity:1"/>
  </linearGradient>
  <linearGradient id="linearGradient4735" y1="39" x2="0" y2="9" gradientUnits="userSpaceOnUse">
   <stop style="stop-color:#d04848;stop-opacity:1"/>
   <stop offset="1" style="stop-color:#d25252;stop-opacity:1"/>
  </linearGradient>
  <linearGradient id="linearGradient4810" y1="39" x2="0" y2="9" gradientUnits="userSpaceOnUse">
   <stop style="stop-color:#726cac;stop-opacity:1"/>
   <stop offset="1" style="stop-color:#7974b0;stop-opacity:1"/>
  </linearGradient>
  <radialGradient id="radialGradient4850" cx="24" cy="16.5" r="3.5" gradientUnits="userSpaceOnUse">
   <stop style="stop-color:#6461a5;stop-opacity:1"/>
   <stop offset="1" style="stop-color:#5c579b;stop-opacity:1"/>
  </radialGradient>
  <radialGradient id="radialGradient4858" cx="24" cy="31.5" r="3.5" gradientUnits="userSpaceOnUse">
   <stop style="stop-color:#cd3939;stop-opacity:1"/>
   <stop offset="1" style="stop-color:#c13131;stop-opacity:1"/>
  </radialGradient>
 </defs>
 <g>
  <path d="m 36.31 5 c 5.859 4.062 9.688 10.831 9.688 18.5 c 0 12.426 -10.07 22.5 -22.5 22.5 c -7.669 0 -14.438 -3.828 -18.5 -9.688 c 1.037 1.822 2.306 3.499 3.781 4.969 c 4.085 3.712 9.514 5.969 15.469 5.969 c 12.703 0 23 -10.298 23 -23 c 0 -5.954 -2.256 -11.384 -5.969 -15.469 c -1.469 -1.475 -3.147 -2.744 -4.969 -3.781 z m 4.969 3.781 c 3.854 4.113 6.219 9.637 6.219 15.719 c 0 12.703 -10.297 23 -23 23 c -6.081 0 -11.606 -2.364 -15.719 -6.219 c 4.16 4.144 9.883 6.719 16.219 6.719 c 12.703 0 23 -10.298 23 -23 c 0 -6.335 -2.575 -12.06 -6.719 -16.219 z" style="opacity:0.05"/>
  <path d="m 41.28 8.781 c 3.712 4.085 5.969 9.514 5.969 15.469 c 0 12.703 -10.297 23 -23 23 c -5.954 0 -11.384 -2.256 -15.469 -5.969 c 4.113 3.854 9.637 6.219 15.719 6.219 c 12.703 0 23 -10.298 23 -23 c 0 -6.081 -2.364 -11.606 -6.219 -15.719 z" style="opacity:0.1"/>
  <path d="m 31.25 2.375 c 8.615 3.154 14.75 11.417 14.75 21.13 c 0 12.426 -10.07 22.5 -22.5 22.5 c -9.708 0 -17.971 -6.135 -21.12 -14.75 a 23 23 0 0 0 44.875 -7 a 23 23 0 0 0 -16 -21.875 z" style="opacity:0.2"/>
 </g>
 <g>
  <path d="m 24 1 c 12.703 0 23 10.297 23 23 c 0 12.703 -10.297 23 -23 23 -12.703 0 -23 -10.297 -23 -23 0 -12.703 10.297 -23 23 -23 z" style="fill:url(#linearGradient3764);fill-opacity:1"/>
 </g>
 <g>
  <path d="m 40.03 7.531 c 3.712 4.084 5.969 9.514 5.969 15.469 0 12.703 -10.297 23 -23 23 c -5.954 0 -11.384 -2.256 -15.469 -5.969 4.178 4.291 10.01 6.969 16.469 6.969 c 12.703 0 23 -10.298 23 -23 0 -6.462 -2.677 -12.291 -6.969 -16.469 z" style="opacity:0.1"/>
 </g>
 <g>
  <circle cx="25" cy="25" r="15" style="fill:#000;opacity:1;fill-opacity:0.098;stroke:none;fill-rule:nonzero"/>
  <path d="m 39 24 c 0 8.284 -6.716 15 -15 15 -8.284 0 -12 -12 -12 -15 0 -4 6 -15 12 -15 c 8.284 0 15 6.716 15 15 z" style="fill:url(#linearGradient4735);opacity:1;fill-opacity:1;stroke:none;fill-rule:nonzero"/>
  <path d="M 25 10 A 7.5 7.5 0 0 0 24.361 10.03 C 16.376 10.37 10 16.931 10 25 C 10 28.897 11.496 32.435 13.934 35.1 A 15 15 0 0 0 20.662 38.609 C 18.751 37.25 17.5 35.02 17.5 32.5 C 17.5 28.358 20.858 25 25 25 A 7.5 7.5 0 0 0 32.5 17.5 A 7.5 7.5 0 0 0 25 10 z" style="fill:#000;opacity:1;fill-opacity:0.098;stroke:none;fill-rule:nonzero"/>
  <path d="M 24 9 A 7.5 7.5 0 0 0 23.361 9.03 C 15.376 9.37 9 15.931 9 24 C 9 32.03 15.307 38.559 23.23 38.961 C 19.451 38.577 16.5 35.38 16.5 31.5 C 16.5 27.358 19.858 24 24 24 A 7.5 7.5 0 0 0 31.5 16.5 A 7.5 7.5 0 0 0 24 9 z" style="fill:url(#linearGradient4810);opacity:1;fill-opacity:1;stroke:none;fill-rule:nonzero"/>
  <circle r="3.5" cy="16.5" cx="24" style="fill:url(#radialGradient4850);opacity:1;fill-opacity:1;stroke:none;fill-rule:nonzero"/>
  <circle cx="24" cy="31.5" r="3.5" style="fill:url(#radialGradient4858);opacity:1;fill-opacity:1;stroke:none;fill-rule:nonzero"/>
 </g>
</svg>

<svg xmlns="http://www.w3.org/2000/svg" viewBox="0 0 48 48">
  <defs>
    <linearGradient id="a" x1="1" x2="47" gradientUnits="userSpaceOnUse" gradientTransform="rotate(-90 24 24)">
      <stop stop-color="#e4e4e4"/>
      <stop offset="1" stop-color="#eee"/>
    </linearGradient>
    <linearGradient id="b" y1="39" x2="0" y2="9" gradientUnits="userSpaceOnUse">
      <stop stop-color="#d04848"/>
      <stop offset="1" stop-color="#d25252"/>
    </linearGradient>
    <linearGradient id="c" y1="39" x2="0" y2="9" gradientUnits="userSpaceOnUse">
      <stop stop-color="#726cac"/>
      <stop offset="1" stop-color="#7974b0"/>
    </linearGradient>
    <radialGradient id="d" cx="24" cy="16.5" r="3.5" gradientUnits="userSpaceOnUse">
      <stop stop-color="#6461a5"/>
      <stop offset="1" stop-color="#5c579b"/>
    </radialGradient>
    <radialGradient id="e" cx="24" cy="31.5" r="3.5" gradientUnits="userSpaceOnUse">
      <stop stop-color="#cd3939"/>
      <stop offset="1" stop-color="#c13131"/>
    </radialGradient>
  </defs>
  <path d="M36.31 5c5.859 4.062 9.688 10.831 9.688 18.5 0 12.426-10.07 22.5-22.5 22.5-7.669 0-14.438-3.828-18.5-9.688a23.24 23.24 0 0 0 3.781 4.969 22.923 22.923 0 0 0 15.469 5.969c12.703 0 23-10.298 23-23a22.92 22.92 0 0 0-5.969-15.469A23.216 23.216 0 0 0 36.31 5zm4.969 3.781A22.911 22.911 0 0 1 47.498 24.5c0 12.703-10.297 23-23 23a22.909 22.909 0 0 1-15.719-6.219C12.939 45.425 18.662 48 24.998 48c12.703 0 23-10.298 23-23 0-6.335-2.575-12.06-6.719-16.219z" opacity=".05"/>
  <path d="M41.28 8.781a22.923 22.923 0 0 1 5.969 15.469c0 12.703-10.297 23-23 23A22.92 22.92 0 0 1 8.78 41.281 22.911 22.911 0 0 0 24.499 47.5c12.703 0 23-10.298 23-23A22.909 22.909 0 0 0 41.28 8.781z" opacity=".1"/>
  <path d="M31.25 2.375C39.865 5.529 46 13.792 46 23.505c0 12.426-10.07 22.5-22.5 22.5-9.708 0-17.971-6.135-21.12-14.75a23 23 0 0 0 44.875-7 23 23 0 0 0-16-21.875z" opacity=".2"/>
  <path d="M24 1c12.703 0 23 10.297 23 23S36.703 47 24 47 1 36.703 1 24 11.297 1 24 1z" fill="url(#a)"/>
  <g>
    <path d="M40.03 7.531A22.922 22.922 0 0 1 45.999 23c0 12.703-10.297 23-23 23A22.92 22.92 0 0 1 7.53 40.031C11.708 44.322 17.54 47 23.999 47c12.703 0 23-10.298 23-23 0-6.462-2.677-12.291-6.969-16.469z" opacity=".1"/>
  </g>
  <g>
    <circle cx="25" cy="25" r="15" fill-opacity=".098"/>
    <path d="M39 24c0 8.284-6.716 15-15 15-8.284 0-12-12-12-15 0-4 6-15 12-15 8.284 0 15 6.716 15 15z" fill="url(#b)"/>
    <path d="M25 10a7.5 7.5 0 0 0-.639.03C16.376 10.37 10 16.931 10 25c0 3.897 1.496 7.435 3.934 10.1a15 15 0 0 0 6.728 3.509A7.487 7.487 0 0 1 17.5 32.5 7.5 7.5 0 0 1 25 25a7.5 7.5 0 0 0 7.5-7.5A7.5 7.5 0 0 0 25 10z" fill-opacity=".098"/>
    <path d="M24 9a7.5 7.5 0 0 0-.639.03C15.376 9.37 9 15.931 9 24c0 8.03 6.307 14.559 14.23 14.961A7.5 7.5 0 0 1 24 24a7.5 7.5 0 0 0 7.5-7.5A7.5 7.5 0 0 0 24 9z" fill="url(#c)"/>
    <circle r="3.5" cy="16.5" cx="24" fill="url(#d)"/>
    <circle cx="24" cy="31.5" r="3.5" fill="url(#e)"/>
  </g>
</svg>
